_inc/images/systems/logos/auto-lightgun.svg

<svg viewBox="0 0 200 40" xmlns="http://www.w3.org/2000/svg">
    <path d="m60.682 24.563-.835 4.788H48.511l3.281-18.702h5.668l-2.446 13.914h5.668Zm5.966 4.788h-5.667l3.281-18.702h5.668l-3.282 18.702Zm13.664-5.506.149-.808h-1.432l.805-4.578h6.832l-1.76 9.994c-2.426.898-4.863 1.347-7.309 1.347-2.447 0-4.213-.489-5.3-1.466-1.081-.978-1.621-2.484-1.621-4.518 0-.859.139-2.125.418-3.801.596-3.471 1.65-5.975 3.162-7.511 1.512-1.536 4.017-2.304 7.518-2.304.735 0 1.673.079 2.813.239 1.147.16 1.989.34 2.526.539l-1.641 4.579c-1.491-.28-2.86-.419-4.106-.419-1.24 0-2.128.099-2.665.299-.537.199-.856.598-.955 1.197l-1.462 8.468h1.88c.676 0 1.176-.073 1.501-.219.331-.153.547-.499.647-1.038Zm22.941 5.506h-5.669l1.134-6.613h-4.266l-1.133 6.613H87.65l3.282-18.702H96.6l-1.164 6.613h4.266l1.164-6.613h5.668l-3.281 18.702Zm19.599-18.702-.865 4.788h-4.117l-2.417 13.914h-5.667l2.416-13.914h-4.087l.865-4.788h13.872Zm9.248 13.196.149-.808h-1.432l.805-4.578h6.832l-1.76 9.994c-2.427.898-4.863 1.347-7.309 1.347-2.446 0-4.213-.489-5.3-1.466-1.081-.978-1.621-2.484-1.621-4.518 0-.859.139-2.125.418-3.801.596-3.471 1.65-5.975 3.162-7.511 1.511-1.536 4.017-2.304 7.517-2.304.736 0 1.674.079 2.815.239 1.146.16 1.989.34 2.526.539l-1.641 4.579c-1.492-.28-2.861-.419-4.107-.419-1.24 0-2.128.099-2.665.299-.537.199-.855.598-.955 1.197l-1.461 8.468h1.879c.676 0 1.176-.073 1.501-.219.331-.153.547-.499.647-1.038Zm10.202-13.196h5.668l-2.476 14.034h2.029c.696 0 1.193-.093 1.491-.279.298-.193.507-.628.627-1.307l2.207-12.448h5.669l-1.85 10.503c-.298 1.696-.643 3.062-1.034 4.1-.385 1.037-.925 1.914-1.621 2.633-.696.718-1.558 1.217-2.586 1.496-1.021.28-2.316.419-3.888.419-2.406 0-4.094-.366-5.061-1.097-.962-.725-1.442-1.975-1.442-3.75 0-.978.139-2.245.417-3.801l1.85-10.503Zm30.996 18.702h-5.341l-3.042-6.643c-.08-.14-.119-.336-.119-.589 0-.246.019-.528.059-.847h-.238l-1.403 8.079h-5.668l3.282-18.702h5.34l3.042 6.643c.06.14.09.336.09.589 0 .246-.02.528-.06.847h.239l1.432-8.079h5.668l-3.281 18.702Z" style="white-space:pre;fill:#fff"/>
    <path d="M28.513 30.389c-.277-.088-.598-.219-.685-.307-.291-.233-.228-1.957.124-3.183.618-2.249 1.744-4.075 3.892-6.294 1.665-1.738 1.87-2.176 1.435-3.126-.261-.54-1.119-1.241-1.527-1.241-.131 0-.364-.102-.524-.219-.146-.117-.51-.219-.801-.219-.685 0-.889-.175-1.586-1.387-.668-1.154-.682-1.329-.3-2.337l.278-.73.773-.073c.641-.073 1.035-.234 2.071-.92.701-.453 1.431-.832 1.606-.832.174 0 .539.131.801.292.422.262.728.292 2.957.292 2.274 0 2.522.029 2.915.292.378.277.436.292.845.087.365-.204.437-.204.51-.014.058.175.145.19.452.044.262-.117.423-.117.524-.015.117.117.262.117.525 0 .277-.117.379-.117.466.029.102.146.189.161.437.015.249-.117.38-.132.525 0 .146.131.277.117.51 0 .278-.146.35-.117.539.131.204.307.262.307 8.496.307h8.279l1.692-.657c1.59-.628 1.721-.657 2.1-.453 1.004.526 3.008 3.695 2.904 4.585-.045.366-.103.395-.876.439-.67.029-.86.102-1.035.379l-.22.336-5.946.088-5.947.102-.365.424-.38.438-5.539.379c-3.047.205-5.627.409-5.744.453-.146.044-.175.248-.118.818.057.409.158.818.245.905.219.219.174.76-.089.979-.161.131-.759.233-1.56.277l-1.312.073-1.874 3.359c-1.785 3.184-1.888 3.403-1.889 4.177-.002.482-.075.89-.178.978-.335.263-4.696 1.314-5.803 1.402-.598.044-1.327 0-1.603-.073Z" style="fill:#ccc" transform="rotate(-24.64 48.197 20)"/>
</svg>

<?xml version="1.0" encoding="utf-8"?>
<svg viewBox="0 0 200 40" xmlns="http://www.w3.org/2000/svg">
  <path d="M 60.682 24.563 L 59.847 29.351 L 48.511 29.351 L 51.792 10.649 L 57.46 10.649 L 55.014 24.563 L 60.682 24.563 Z M 66.648 29.351 L 60.981 29.351 L 64.262 10.649 L 69.93 10.649 L 66.648 29.351 Z M 80.312 23.845 L 80.312 23.845 L 80.461 23.037 L 79.029 23.037 L 79.834 18.459 L 86.666 18.459 L 84.906 28.453 L 84.906 28.453 C 82.48 29.351 80.043 29.8 77.597 29.8 L 77.597 29.8 L 77.597 29.8 C 75.15 29.8 73.384 29.311 72.297 28.334 L 72.297 28.334 L 72.297 28.334 C 71.216 27.356 70.676 25.85 70.676 23.816 L 70.676 23.816 L 70.676 23.816 C 70.676 22.957 70.815 21.691 71.094 20.015 L 71.094 20.015 L 71.094 20.015 C 71.69 16.544 72.744 14.04 74.256 12.504 L 74.256 12.504 L 74.256 12.504 C 75.768 10.968 78.273 10.2 81.774 10.2 L 81.774 10.2 L 81.774 10.2 C 82.509 10.2 83.447 10.279 84.587 10.439 L 84.587 10.439 L 84.587 10.439 C 85.734 10.599 86.576 10.779 87.113 10.978 L 87.113 10.978 L 85.472 15.557 L 85.472 15.557 C 83.981 15.277 82.612 15.138 81.366 15.138 L 81.366 15.138 L 81.366 15.138 C 80.126 15.138 79.238 15.237 78.701 15.437 L 78.701 15.437 L 78.701 15.437 C 78.164 15.636 77.845 16.035 77.746 16.634 L 77.746 16.634 L 76.284 25.102 L 78.164 25.102 L 78.164 25.102 C 78.84 25.102 79.34 25.029 79.665 24.883 L 79.665 24.883 L 79.665 24.883 C 79.996 24.73 80.212 24.384 80.312 23.845 Z M 103.253 29.351 L 97.584 29.351 L 98.718 22.738 L 94.452 22.738 L 93.319 29.351 L 87.65 29.351 L 90.932 10.649 L 96.6 10.649 L 95.436 17.262 L 99.702 17.262 L 100.866 10.649 L 106.534 10.649 L 103.253 29.351 Z M 122.852 10.649 L 121.987 15.437 L 117.87 15.437 L 115.453 29.351 L 109.786 29.351 L 112.202 15.437 L 108.115 15.437 L 108.98 10.649 L 122.852 10.649 Z M 132.1 23.845 L 132.1 23.845 L 132.249 23.037 L 130.817 23.037 L 131.622 18.459 L 138.454 18.459 L 136.694 28.453 L 136.694 28.453 C 134.267 29.351 131.831 29.8 129.385 29.8 L 129.385 29.8 L 129.385 29.8 C 126.939 29.8 125.172 29.311 124.085 28.334 L 124.085 28.334 L 124.085 28.334 C 123.004 27.356 122.464 25.85 122.464 23.816 L 122.464 23.816 L 122.464 23.816 C 122.464 22.957 122.603 21.691 122.882 20.015 L 122.882 20.015 L 122.882 20.015 C 123.478 16.544 124.532 14.04 126.044 12.504 L 126.044 12.504 L 126.044 12.504 C 127.555 10.968 130.061 10.2 133.561 10.2 L 133.561 10.2 L 133.561 10.2 C 134.297 10.2 135.235 10.279 136.376 10.439 L 136.376 10.439 L 136.376 10.439 C 137.522 10.599 138.365 10.779 138.902 10.978 L 138.902 10.978 L 137.261 15.557 L 137.261 15.557 C 135.769 15.277 134.4 15.138 133.154 15.138 L 133.154 15.138 L 133.154 15.138 C 131.914 15.138 131.026 15.237 130.489 15.437 L 130.489 15.437 L 130.489 15.437 C 129.952 15.636 129.634 16.035 129.534 16.634 L 129.534 16.634 L 128.073 25.102 L 129.952 25.102 L 129.952 25.102 C 130.628 25.102 131.128 25.029 131.453 24.883 L 131.453 24.883 L 131.453 24.883 C 131.784 24.73 132 24.384 132.1 23.845 Z M 142.302 10.649 L 147.97 10.649 L 145.494 24.683 L 147.523 24.683 L 147.523 24.683 C 148.219 24.683 148.716 24.59 149.014 24.404 L 149.014 24.404 L 149.014 24.404 C 149.312 24.211 149.521 23.776 149.641 23.097 L 149.641 23.097 L 151.848 10.649 L 157.517 10.649 L 155.667 21.152 L 155.667 21.152 C 155.369 22.848 155.024 24.214 154.633 25.252 L 154.633 25.252 L 154.633 25.252 C 154.248 26.289 153.708 27.166 153.012 27.885 L 153.012 27.885 L 153.012 27.885 C 152.316 28.603 151.454 29.102 150.426 29.381 L 150.426 29.381 L 150.426 29.381 C 149.405 29.661 148.11 29.8 146.538 29.8 L 146.538 29.8 L 146.538 29.8 C 144.132 29.8 142.444 29.434 141.477 28.703 L 141.477 28.703 L 141.477 28.703 C 140.515 27.978 140.035 26.728 140.035 24.953 L 140.035 24.953 L 140.035 24.953 C 140.035 23.975 140.174 22.708 140.452 21.152 L 140.452 21.152 L 142.302 10.649 Z M 173.298 29.351 L 167.957 29.351 L 164.915 22.708 L 164.915 22.708 C 164.835 22.568 164.796 22.372 164.796 22.119 L 164.796 22.119 L 164.796 22.119 C 164.796 21.873 164.815 21.591 164.855 21.272 L 164.855 21.272 L 164.617 21.272 L 163.214 29.351 L 157.546 29.351 L 160.828 10.649 L 166.168 10.649 L 169.21 17.292 L 169.21 17.292 C 169.27 17.432 169.3 17.628 169.3 17.881 L 169.3 17.881 L 169.3 17.881 C 169.3 18.127 169.28 18.409 169.24 18.728 L 169.24 18.728 L 169.479 18.728 L 170.911 10.649 L 176.579 10.649 L 173.298 29.351 Z" style="white-space: pre; fill: rgb(255, 255, 255);"/>
  <path d="M 28.513 30.389 C 28.236 30.301 27.915 30.17 27.828 30.082 C 27.537 29.849 27.6 28.125 27.952 26.899 C 28.57 24.65 29.696 22.824 31.844 20.605 C 33.509 18.867 33.714 18.429 33.279 17.479 C 33.018 16.939 32.16 16.238 31.752 16.238 C 31.621 16.238 31.388 16.136 31.228 16.019 C 31.082 15.902 30.718 15.8 30.427 15.8 C 29.742 15.8 29.538 15.625 28.841 14.413 C 28.173 13.259 28.159 13.084 28.541 12.076 L 28.819 11.346 L 29.592 11.273 C 30.233 11.2 30.627 11.039 31.663 10.353 C 32.364 9.9 33.094 9.521 33.269 9.521 C 33.443 9.521 33.808 9.652 34.07 9.813 C 34.492 10.075 34.798 10.105 37.027 10.105 C 39.301 10.105 39.549 10.134 39.942 10.397 C 40.32 10.674 40.378 10.689 40.787 10.484 C 41.152 10.28 41.224 10.28 41.297 10.47 C 41.355 10.645 41.442 10.66 41.749 10.514 C 42.011 10.397 42.172 10.397 42.273 10.499 C 42.39 10.616 42.535 10.616 42.798 10.499 C 43.075 10.382 43.177 10.382 43.264 10.528 C 43.366 10.674 43.453 10.689 43.701 10.543 C 43.95 10.426 44.081 10.411 44.226 10.543 C 44.372 10.674 44.503 10.66 44.736 10.543 C 45.014 10.397 45.086 10.426 45.275 10.674 C 45.479 10.981 45.537 10.981 53.771 10.981 L 62.05 10.981 L 63.742 10.324 C 65.332 9.696 65.463 9.667 65.842 9.871 C 66.846 10.397 68.85 13.566 68.746 14.456 C 68.701 14.822 68.643 14.851 67.87 14.895 C 67.2 14.924 67.01 14.997 66.835 15.274 L 66.615 15.61 L 60.669 15.698 L 54.722 15.8 L 54.357 16.224 L 53.977 16.662 L 48.438 17.041 C 45.391 17.246 42.811 17.45 42.694 17.494 C 42.548 17.538 42.519 17.742 42.576 18.312 C 42.633 18.721 42.734 19.13 42.821 19.217 C 43.04 19.436 42.995 19.977 42.732 20.196 C 42.571 20.327 41.973 20.429 41.172 20.473 L 39.86 20.546 L 37.986 23.905 C 36.201 27.089 36.098 27.308 36.097 28.082 C 36.095 28.564 36.022 28.972 35.919 29.06 C 35.584 29.323 31.223 30.374 30.116 30.462 C 29.518 30.506 28.789 30.462 28.513 30.389 Z" style="fill: rgb(204, 204, 204);" transform="matrix(0.908943, -0.41692, 0.41692, 0.908943, -3.949866, 21.915389)"/>
</svg>
